flaticon/gastronomy/slotted-spoon.svg

<svg xmlns="http://www.w3.org/2000/svg" width="32" height="32" viewBox="0 0 24 24">
    <path d="M6.132812 20.734375C5.910156 20.734375 5.726562 20.917969 5.726562 21.144531L5.726562 21.960938C5.726562 22.183594 5.910156 22.367188 6.132812 22.367188 6.359375 22.367188 6.542969 22.183594 6.542969 21.960938L6.542969 21.144531C6.542969 20.917969 6.359375 20.734375 6.132812 20.734375zM6.132812 15.835938C6.359375 15.835938 6.542969 15.65625 6.542969 15.429688L6.542969 14.613281C6.542969 14.386719 6.359375 14.203125 6.132812 14.203125 5.910156 14.203125 5.726562 14.386719 5.726562 14.613281L5.726562 15.429688C5.726562 15.65625 5.910156 15.835938 6.132812 15.835938zM5.269531 17.996094C5.347656 18.078125 5.453125 18.117188 5.554688 18.117188 5.660156 18.117188 5.765625 18.078125 5.84375 17.996094 6.003906 17.835938 6.003906 17.578125 5.84375 17.421875L5.554688 17.132812C5.398438 16.972656 5.140625 16.972656 4.980469 17.132812 4.820312 17.292969 4.820312 17.550781 4.980469 17.707031zM7 18.574219C6.839844 18.414062 6.582031 18.414062 6.421875 18.574219 6.261719 18.734375 6.261719 18.992188 6.421875 19.152344L6.710938 19.441406C6.789062 19.519531 6.894531 19.558594 7 19.558594 7.105469 19.558594 7.207031 19.519531 7.289062 19.441406 7.449219 19.28125 7.449219 19.023438 7.289062 18.863281zM3.683594 18.285156C3.683594 18.058594 3.503906 17.878906 3.277344 17.878906L2.460938 17.878906C2.234375 17.878906 2.050781 18.058594 2.050781 18.285156 2.050781 18.511719 2.234375 18.695312 2.460938 18.695312L3.277344 18.695312C3.503906 18.695312 3.683594 18.511719 3.683594 18.285156zM8.582031 18.285156C8.582031 18.511719 8.765625 18.695312 8.992188 18.695312L9.808594 18.695312C10.03125 18.695312 10.214844 18.511719 10.214844 18.285156 10.214844 18.058594 10.03125 17.878906 9.808594 17.878906L8.992188 17.878906C8.765625 17.878906 8.582031 18.058594 8.582031 18.285156zM3.824219 20.019531L3.246094 20.59375C3.089844 20.753906 3.089844 21.011719 3.246094 21.171875 3.328125 21.25 3.433594 21.292969 3.535156 21.292969 3.640625 21.292969 3.746094 21.25 3.824219 21.171875L4.402344 20.59375C4.5625 20.433594 4.5625 20.175781 4.402344 20.019531 4.242188 19.859375 3.984375 19.859375 3.824219 20.019531zM8.152344 16.671875C8.257812 16.671875 8.363281 16.632812 8.441406 16.554688L9.019531 15.976562C9.179688 15.816406 9.179688 15.558594 9.019531 15.398438 8.859375 15.238281 8.601562 15.238281 8.441406 15.398438L7.867188 15.976562C7.707031 16.136719 7.707031 16.394531 7.867188 16.554688 7.945312 16.632812 8.050781 16.671875 8.152344 16.671875zM3.824219 15.398438C3.664062 15.238281 3.40625 15.238281 3.246094 15.398438 3.089844 15.558594 3.089844 15.816406 3.246094 15.976562L3.824219 16.554688C3.90625 16.632812 4.007812 16.671875 4.113281 16.671875 4.21875 16.671875 4.324219 16.632812 4.402344 16.554688 4.5625 16.394531 4.5625 16.136719 4.402344 15.976562zM8.441406 20.019531C8.28125 19.859375 8.023438 19.859375 7.867188 20.019531 7.707031 20.175781 7.707031 20.433594 7.867188 20.59375L8.441406 21.171875C8.523438 21.25 8.625 21.292969 8.730469 21.292969 8.835938 21.292969 8.941406 21.25 9.019531 21.171875 9.179688 21.011719 9.179688 20.753906 9.019531 20.59375zM6.710938 17.132812L6.421875 17.421875C6.261719 17.578125 6.261719 17.835938 6.421875 17.996094 6.5 18.078125 6.605469 18.117188 6.710938 18.117188 6.816406 18.117188 6.917969 18.078125 7 17.996094L7.289062 17.707031C7.449219 17.550781 7.449219 17.292969 7.289062 17.132812 7.128906 16.972656 6.871094 16.972656 6.710938 17.132812zM5.84375 18.574219C5.6875 18.414062 5.425781 18.414062 5.269531 18.574219L4.980469 18.863281C4.820312 19.023438 4.820312 19.28125 4.980469 19.441406 5.058594 19.519531 5.164062 19.558594 5.269531 19.558594 5.371094 19.558594 5.476562 19.519531 5.554688 19.441406L5.84375 19.152344C6.003906 18.992188 6.003906 18.734375 5.84375 18.574219zM21.03125 1.386719C20.875 1.230469 20.613281 1.230469 20.457031 1.386719L19.503906 2.339844C19.34375 2.5 19.34375 2.757812 19.503906 2.917969 19.582031 2.996094 19.6875 3.035156 19.792969 3.035156 19.898438 3.035156 20 2.996094 20.082031 2.917969L21.03125 1.964844C21.191406 1.808594 21.191406 1.546875 21.03125 1.386719zM19.054688 3.941406C19.214844 3.78125 19.214844 3.523438 19.054688 3.367188 18.894531 3.207031 18.636719 3.207031 18.480469 3.367188L15.78125 6.066406C15.621094 6.226562 15.621094 6.484375 15.78125 6.640625 15.859375 6.722656 15.964844 6.761719 16.066406 6.761719 16.171875 6.761719 16.277344 6.722656 16.355469 6.640625zM17.167969 6.984375L16.203125 7.949219C16.042969 8.109375 16.042969 8.367188 16.203125 8.527344 16.285156 8.605469 16.386719 8.644531 16.492188 8.644531 16.597656 8.644531 16.703125 8.605469 16.78125 8.527344L17.746094 7.5625C17.90625 7.402344 17.90625 7.144531 17.746094 6.984375 17.585938 6.824219 17.328125 6.824219 17.167969 6.984375zM20.292969 3.859375L18.324219 5.828125C18.164062 5.988281 18.164062 6.246094 18.324219 6.40625 18.402344 6.484375 18.507812 6.527344 18.613281 6.527344 18.71875 6.527344 18.820312 6.484375 18.902344 6.40625L20.871094 4.4375C21.027344 4.277344 21.027344 4.019531 20.871094 3.859375 20.710938 3.703125 20.453125 3.703125 20.292969 3.859375zM21.695312 2.457031L21.210938 2.941406C21.050781 3.101562 21.050781 3.359375 21.210938 3.519531 21.289062 3.597656 21.394531 3.640625 21.5 3.640625 21.605469 3.640625 21.707031 3.597656 21.789062 3.519531L22.273438 3.035156C22.433594 2.875 22.433594 2.617188 22.273438 2.457031 22.113281 2.296875 21.855469 2.296875 21.695312 2.457031zM21.695312 2.457031"/>
    <path d="M 23.574219 2.703125 C 23.570312 2.609375 23.515625 1.785156 22.660156 0.929688 C 22.570312 0.835938 21.753906 0 20.875 0 C 20.867188 0 20.859375 0 20.851562 0 L 20.769531 0 L 20.699219 0.03125 C 20.519531 0.109375 16.296875 1.972656 13.125 7.585938 L 13.066406 7.6875 L 13.074219 7.800781 C 13.074219 7.886719 13.132812 8.628906 13.863281 9.433594 L 9.566406 13.726562 C 8.609375 13.003906 7.421875 12.570312 6.132812 12.570312 C 2.984375 12.570312 0.417969 15.136719 0.417969 18.285156 C 0.417969 21.4375 2.984375 24 6.132812 24 C 9.285156 24 11.847656 21.4375 11.847656 18.285156 C 11.847656 16.71875 11.210938 15.296875 10.1875 14.261719 L 14.464844 9.984375 C 14.800781 10.234375 15.273438 10.503906 15.773438 10.503906 C 15.78125 10.503906 15.789062 10.503906 15.796875 10.503906 L 15.875 10.5 L 15.949219 10.46875 C 16.128906 10.394531 20.351562 8.53125 23.523438 2.917969 L 23.578125 2.816406 Z M 6.132812 23.183594 C 3.433594 23.183594 1.234375 20.988281 1.234375 18.285156 C 1.234375 15.585938 3.433594 13.386719 6.132812 13.386719 C 8.835938 13.386719 11.03125 15.585938 11.03125 18.285156 C 11.03125 20.988281 8.835938 23.183594 6.132812 23.183594 Z M 15.707031 9.683594 C 15.273438 9.640625 14.753906 9.191406 14.578125 9.011719 L 14.480469 8.910156 C 14.410156 8.832031 14.347656 8.753906 14.292969 8.679688 C 14.320312 8.660156 14.351562 8.648438 14.375 8.625 L 15.4375 7.5625 C 15.597656 7.402344 15.597656 7.144531 15.4375 6.984375 C 15.28125 6.824219 15.019531 6.824219 14.863281 6.984375 L 13.917969 7.929688 C 13.914062 7.90625 13.90625 7.886719 13.902344 7.871094 C 16.691406 3.007812 20.359375 1.097656 20.941406 0.820312 C 21.375 0.863281 21.898438 1.3125 22.070312 1.492188 L 22.167969 1.59375 C 22.582031 2.042969 22.707031 2.453125 22.746094 2.636719 C 19.957031 7.496094 16.289062 9.40625 15.707031 9.683594 Z M 15.707031 9.683594"/>
</svg>

<svg xmlns="http://www.w3.org/2000/svg" width="32" height="32" viewBox="0 0 24 24">
    <path d="M6.133 20.734a.41.41 0 0 0-.406.41v.817a.408.408 0 0 0 .816 0v-.816a.41.41 0 0 0-.41-.41zm0 0M6.133 15.836c.226 0 .41-.18.41-.406v-.817a.41.41 0 0 0-.41-.41.41.41 0 0 0-.406.41v.817c0 .226.183.406.406.406zm0 0M5.27 17.996a.394.394 0 0 0 .285.121c.105 0 .21-.039.289-.12a.403.403 0 0 0 0-.575l-.29-.29a.403.403 0 0 0-.574 0 .403.403 0 0 0 0 .575zm0 0M7 18.574a.408.408 0 1 0-.578.578l.289.29a.414.414 0 0 0 .578 0 .408.408 0 0 0 0-.579zm0 0M3.684 18.285a.403.403 0 0 0-.407-.406h-.816c-.227 0-.41.18-.41.406 0 .227.183.41.41.41h.816a.407.407 0 0 0 .407-.41zm0 0M8.582 18.285c0 .227.184.41.41.41h.817a.41.41 0 0 0 .406-.41.406.406 0 0 0-.406-.406h-.817c-.226 0-.41.18-.41.406zm0 0M3.824 20.02l-.578.574a.415.415 0 0 0 0 .578.426.426 0 0 0 .29.121c.105 0 .21-.043.288-.121l.578-.578a.408.408 0 0 0-.578-.574zm0 0M8.152 16.672c.106 0 .211-.04.29-.117l.578-.578a.408.408 0 1 0-.579-.579l-.574.579a.408.408 0 0 0 .285.695zm0 0M3.824 15.398a.408.408 0 1 0-.578.579l.578.578a.414.414 0 0 0 .578 0 .408.408 0 0 0 0-.578zm0 0M8.441 20.02a.403.403 0 0 0-.574 0 .403.403 0 0 0 0 .574l.574.578a.419.419 0 0 0 .29.121c.105 0 .21-.043.289-.121a.408.408 0 0 0 0-.578zm0 0M6.71 17.133l-.288.289a.403.403 0 0 0 0 .574.396.396 0 0 0 .289.121c.105 0 .207-.039.289-.12l.29-.29a.408.408 0 0 0-.578-.574zm0 0M5.844 18.574a.403.403 0 0 0-.574 0l-.29.29a.408.408 0 0 0 .575.577l.289-.289a.408.408 0 0 0 0-.578zm0 0M21.031 1.387a.41.41 0 0 0-.574 0l-.953.953a.408.408 0 1 0 .578.578l.95-.953a.408.408 0 0 0 0-.578zm0 0M19.055 3.941a.403.403 0 0 0 0-.574.403.403 0 0 0-.575 0l-2.699 2.7a.403.403 0 0 0 0 .574.394.394 0 0 0 .285.12c.106 0 .211-.038.29-.12zm0 0M17.168 6.984l-.965.965a.408.408 0 1 0 .578.578l.965-.964a.408.408 0 1 0-.578-.579zm0 0M20.293 3.86l-1.969 1.968a.408.408 0 0 0 0 .578.412.412 0 0 0 .29.121.419.419 0 0 0 .288-.12l1.97-1.97a.415.415 0 0 0 0-.578.415.415 0 0 0-.579 0zm0 0M21.695 2.457l-.484.484a.408.408 0 0 0 0 .579.412.412 0 0 0 .289.12.419.419 0 0 0 .29-.12l.483-.485a.408.408 0 1 0-.578-.578zm0 0"/>
    <path d="M23.574 2.703c-.004-.094-.058-.918-.914-1.773-.09-.094-.906-.93-1.785-.93H20.77l-.07.031c-.18.078-4.403 1.942-7.575 7.555l-.059.101.008.114c0 .086.059.828.79 1.633l-4.298 4.293a5.68 5.68 0 0 0-3.433-1.157 5.725 5.725 0 0 0-5.715 5.715A5.722 5.722 0 0 0 6.133 24a5.72 5.72 0 0 0 5.715-5.715 5.711 5.711 0 0 0-1.66-4.023l4.277-4.278c.336.25.808.52 1.308.52h.024l.078-.004.074-.031c.18-.074 4.403-1.938 7.574-7.551l.055-.102zM6.133 23.183a4.904 4.904 0 0 1-4.899-4.898c0-2.7 2.2-4.898 4.899-4.898 2.703 0 4.898 2.199 4.898 4.898a4.901 4.901 0 0 1-4.898 4.899zm9.574-13.5c-.434-.042-.953-.492-1.129-.671l-.098-.102a3.046 3.046 0 0 1-.187-.23c.027-.02.059-.032.082-.055l1.063-1.063a.408.408 0 0 0-.575-.578l-.945.946c-.004-.024-.012-.043-.016-.059 2.79-4.863 6.457-6.773 7.04-7.05.433.042.956.492 1.128.671l.098.102c.414.449.539.86.578 1.043-2.789 4.86-6.457 6.77-7.039 7.047zm0 0"/>
</svg>
